X:12
T:The Banks of Locheil
R:jig
D:Kinnon & Betty Beaton, Cape Breton Fiddle Compilation
Z:Paul Stewart Cranford (P.S.C.), <http://www.cranfordpub.com>
L:1/8
M:6/8
Q:300
K:Amin
A|AGB A2 A|age deg|GBA G2 B|deg edB|
BAG A2 A|age dec|BGB deg|B2 A A2:|
|:a|aAa a2 e|age deg|GBA G2 B|deg edB|
BAG A2 A|age dec|BGB deg|B2 A A2:|
